X:1
T:Title
%%score { 1 | 2 }
L:1/8
Q:1/4=84
M:6/8
K:Ab
V:1 treble nm="Grand Piano"
V:2 bass 
V:1
 [Ec][DG][DA] BAF | [CE]2 [CE] [DE]3 | E[CA][CA] [EA]Bc | c2 B B3 | [Ec][DG][DA] BAF | %5
w: Charles~C.~Ward * * * * *|||||
 [CE]2 [CE] [Ec]3 | B=AB [Ge][Ec][CF_A] | [B,EG]2 [A,=DF] E3 | .E.[DF].[EG] .[CA]2 [CA] | %9
w: ||||
 [CEA][DE][CEA] [Ec]3 | [=Ec][Ec][Ec] [=Dc][DB][DA] | [DB][DB][DB] B3 | .E.[DF].[DG] .[CA]2 B | %13
w: ||||
[M:15/16] cA/-A/[_GA][FAf]3/2- [FAf]3 |[M:3/4] [Ae][Ec] [EA][FB] [DF][Fd] | [Ec]2 [DB] [CA]3 |] %16
w: |||
V:2
 [A,,A,][A,,A,][A,,A,] [D,F,D][F,D][D,A,D] | [A,,A,]2 [A,,A,] [B,,G,]3 | %2
 [C,A,][A,,A,][A,,A,] [C,A,][E,G,E][A,E] | [E,A,E]2 [E,G,E] [E,G,E]3 | %4
 [A,,A,][A,,A,][A,,A,] [D,F,D][D,F,D][D,A,D] | [A,,A,]2 [A,,A,] [A,,A,]3 | %6
 [E,G,E][E,_G,E][E,=G,E] [E,B,]A,,A,, | B,,2 B,, [E,G,]3 | [E,G,D][E,A,][E,B,] [A,,A,]2 [A,,E,] | %9
 A,,E,E, A,3 | [C,G,][C,G,][C,G,] [B,,A,][B,,F,][B,,A,] | [F,A,][F,A,][B,,A,] [E,G,D]3 | %12
 [E,G,D][E,A,][E,B,] [A,,A,]2 [A,D] |[M:15/16] [G,A,E][F,CF]/-[F,CF]/[E,C][D,D]3/2- [D,D]3 | %14
[M:3/4] [E,C][E,A,] [C,A,][D,A,] [D,A,][B,,A,] | [E,A,]2 [E,G,] [A,,A,]3 |] %16

